X:1
T:Send Me
T:Send Me
T:Mrs. W. T Morris
T:W. T Morris, 1909
T:Public Domain Courtesy of the Cyber Hymnal™
T:Public Domain Courtesy of the Cyber Hymnal™
C:Mrs. W. T Morris
Z:Public Domain
Z:Courtesy of the Cyber Hymnal™
%%score ( 1 2 ) ( 3 4 )
L:1/8
Q:1/4=90
M:6/8
K:F
V:1 treble 
V:2 treble 
V:3 bass 
V:4 bass 
V:1
 [CF]/[CG]/ | (A>^G)[FA] (BA)[FG] | [FA]3 [CF]2 ([CF]/[FA]/) | [Fc]>[Fc][Fc] [Fd][Fc][FA] | %4
w: 1.~O’er the|moun- * tain, thro’ * the|val- ley, Or *|e’en where the dark wa- ters|
w: 2.~To the|dwell- * ings of * the|low- ly, Or *|man- sions all state- ly and|
w: 3.~O if|I * can on- * ly|light- en The *|bur- den of some- one op-|
 [EG]3- [EG]2 F/[FG]/ | (A>^G)[FA] (BA)[EB] | [Fc]3 [Fd]2 [Fd]/[Fd]/ | [Fc]>[FA][FG] [FA]2 [CG] | %8
w: flow; * In- to|crowd- * ed street * or|al- ley, Should my|Sav- ior call me, I’ll|
w: grand, * With the|mes- * sage pure * and|ho- ly, I will|go at my Lord’s com-|
w: pressed; * Or by|deeds * of kind- * ness|bright- en For a|mo- ment some life dis-|
 [CF]3- [CF]2 [Fc] | [Fd]2 [Fd] [FB][Fc][Fd] | [Fc]3 [FA]2 [FA] | [Fc]2 [Fc] [Fd][Fc][FA] | %12
w: go. * He|found me lost and for-|sa- ken; My|heart from sin He made|
w: mand. * No|mat- ter where I am|need- ed, At|home, or o- ver the|
w: tressed, * I’ll|glad- ly work in God’s|vine- yard, His|hum- ble ser- vant will|
 [EG]3- [EG]2 (A/B/) | (c>B)[FA] [FA][FG]F | [FB]3 !fermata![Fd]2 [Fd] | [Fc]>[FA][EB] [FA]2 [CG] | %16
w: free; * And *|now, * with cour- age un-|sha- ken, I|an- swer, “Here, Lord, send|
w: sea, * His *|call * will ev- er be|heed- ed, I’ll|an- swer, “Here, Lord, send|
w: be; * And *|when * He call- eth for|la- borers, I’ll|an- swer, “Here, Lord, send|
 [CF]3- [CF]2 z ||"^Refrain" [Fc]>[FB][FA] [Fc][Ec][Fc] | [Fd]3 [Fd]2 [Fd] | %19
w: me.” *|||
w: me.” *|Send me, O Lord, on a|mis- sion! When-|
w: me.” *|||
 [Gd]>[Gd][Gd] [Gd][Ge][G=Bf] | [Be]3- [Be]2 [Be] | [Af]>[Fe][Fd] [Fc][EB][FA] | %22
w: |||
w: ev- er, wher- ev- er it|be, * In|will- ing and loy- al sub-|
w: |||
 [FG]3 !fermata![Fd]2 [Fd] | [Fc]>[FA][EB] [FA]2 [CG] | [CF]3- [CF]2 |] %25
w: |||
w: mis- sion, I’ll|an- swer, “Here, Lord, send|me.” *|
w: |||
V:2
 x | F2 F2 x2 | x6 | x6 | x5 F/ x/ | F2 E2 x2 | x6 | x6 | x6 | x6 | x6 | x6 | x5 F | %13
 F2 x3/2 F x3/2 | x6 | x6 | x6 || x6 | x6 | x6 | x6 | x6 | x6 | x6 | x5 |] %25
V:3
 [F,A,]/[F,B,]/ | (C>=B,)[F,C] (DC)[F,B,] | [F,C]3 [F,A,]2 (A,/C/) | %3
 [F,A,]>[F,A,][F,A,] [F,B,][F,A,][F,C] | [C,C]3- [C,C]2 [F,A,]/[F,B,]/ | %5
 (C>=B,)[F,C] [G,C]2 [G,C] | [A,C]3 B,2 [B,,B,]/[B,,B,]/ | [C,A,]>[C,C][D,=B,] [C,C]2 [C,_B,] | %8
 [F,A,]3- [F,A,]2 [F,A,] | [B,,B,]2 [B,,B,] [B,,D][B,,C][B,,B,] | [F,A,]3 [F,C]2 [F,C] | %11
 [F,A,]2 [F,A,] [F,B,][F,A,][F,C] | [C,C]3- [C,C]2 (C/G,/) | (A,>D)[F,C] [F,_E][G,E][A,E] | %14
 [B,D]3 !fermata![B,,B,]2 [B,,B,] | [C,A,]>[C,C][C,D] [C,C]2 [C,B,] | [F,,F,A,]3- [F,,F,A,]2 z || %17
 [F,A,]>[F,D][F,C] [F,A,][G,B,][A,C] | B,3 B,2 B, | [G,=B,]>[G,B,][G,B,] [G,B,][G,C][G,D] | %20
 [C,C]3- [C,C]2 C | [F,C]>[F,C][F,B,] [F,A,][G,C][A,C] | [B,D]3 !fermata![B,,B,]2 [B,,B,] | %23
 [C,A,]>[C,C][C,D] [C,C]2 [C,B,] | [F,,F,A,]3- [F,,F,A,]2 |] %25
V:4
 x | F,2 F,2 x2 | x5 F, | x6 | x6 | F,2 x4 | x3 B,2 x | x6 | x6 | x6 | x6 | x6 | x5 F, | F,2 x4 | %14
 x6 | x6 | x6 || x6 | B,3 B,2 B, | x6 | x5 C | x6 | x6 | x6 | x5 |] %25

